X: 18856
T: In Continental Mood
R: waltz
M: 3/4
K: Cmajor
b2 bbab|g2 gbab|g2 gbab|gabagf|
e2 eefg|d2 df ga|c2 cefg|aa ba ga|
b2 bb ab|g2 gb ab|g2 gb ab|ga ba gf|
e2 ee fg|d2 de fg|aa ba gf|g3 d BA|
G2 BG Bd|fF BF Bd|E2 GE GB|AA BA GA|
G2 BG Bd|fF BF Bd|E2 GE GB|A2 AA GA|
B2 _eB ef|ga gf ef|d2 dd fa|bc' ba gf|
e2 ce fg|d2 Bf ga|aa ba gf|g4||

